!!!SOCIAL_FUNCTION:	bird dance songs
!!!PDT:	1956
!!!OTL: No_161_Switchgrass_Dance_Song_(k).krn
!!!LANG: Non-Tone
!!!LING_GROUP: Muskogean
!!!REG: Florida
**kern
*staff1
=1-
*clefF4
*k[f#]
*M3/4
8d\L
16.c\L
32d\JJk
16d\LK
8.c\J
16G\LK
8.G\J
=2||
*M2/4
8.c\L
16A\Jk
8G\L
8A\J
=3
16c\LL
16A\J
8G\J
8D\L
8F#\J
=4||
*M3/4
16G\LL
16G\J
8D\J
8.D\L
16D\Jk
4D\
=5||
*M3/8
32G\LLK
16.D\JJ
4D\
=6
*M2/4
4c\
8.c\L
16d\Jk
=7
16d\LK
8.c\J
16G\LK
8.G\J
=8
8.c\L
16A\Jk
8G\L
8A\J
=9
16c\LL
16A\J
8G\J
8D\L
8F#\J
=10||
*M3/4
16G\LL
16G\J
8D\J
8.D\L
16D\Jk
4D\
=11||
*M3/8
32G\LLK
16.D\JJ
4D\
==
*-
